public/assets/stats/book3.svg

<svg xmlns="http://www.w3.org/2000/svg" width="1007" height="655" fill="none"><g filter="url(#a)"><g filter="url(#b)"><path fill="#F3F4F5" d="m919.314 522.74-255.947 22.316 3.402-56.933 35.545-58.769 240-15.114c-27.879 48.076-32.402 72.034-23 108.5"/><path fill="#B6FFF6" d="m378.314 143.947-271.086.001 606.586 286.906 226.501-28.498zM926.242 524.971l-256.535 24.593a5.28 5.28 0 0 1-5.534-3.649c-1.029-3.219 1.19-6.564 4.556-6.867l256.673-23.111a4.5 4.5 0 0 1 1.783.195c4.704 1.497 3.971 8.367-.943 8.839"/><path fill="#B6FFF6" d="m940.427 416.333-224.729 14.103a5.4 5.4 0 0 1-4.155-1.57c-3.258-3.258-1.201-8.837 3.392-9.2l224.471-17.738a7.2 7.2 0 0 1 1.806.084c8.432 1.467 7.756 13.785-.785 14.321"/><path fill="url(#c)" d="M104.153 145.885c1.978-1.297 4.439-1.292 6.578-.281l603.583 285.25c-47.38 43.234-52.041 70.924-48.5 118.5L55.265 261.847c-1.862-.877-3.308-2.43-3.749-4.44-1.692-7.717-3.977-29.656 13.103-62.358 16.529-31.645 32.82-44.762 39.534-49.164"/></g><path fill="#225C90" d="m258.558 303.282 9.3-19.695-5.68.603 1.791-3.793 5.656-.554 3.467 1.637-11.067 23.439zm13.734 6.484 9.299-19.695-5.679.603 1.791-3.792 5.656-.554 3.467 1.637-11.067 23.438zm17.589 8.902q-2.393-1.13-3.74-3.04a8.55 8.55 0 0 1-1.53-4.265q-.173-2.331.957-4.724l3.812-8.073q1.13-2.393 3.039-3.74a8.4 8.4 0 0 1 4.258-1.513q2.338-.19 4.732.94 2.392 1.13 3.732 3.056a8.3 8.3 0 0 1 1.521 4.241q.19 2.339-.94 4.732l-3.812 8.073q-1.13 2.392-3.057 3.733a8.43 8.43 0 0 1-4.248 1.537q-2.332.173-4.724-.957m1.537-3.255q1.302.615 2.652.496a5.33 5.33 0 0 0 2.508-.886q1.143-.775 1.765-2.093l4.027-8.529q.615-1.302.479-2.66a5.15 5.15 0 0 0-.909-2.5q-.759-1.134-2.061-1.749a5.07 5.07 0 0 0-2.676-.487q-1.35.119-2.492.893-1.134.758-1.749 2.061l-4.027 8.529q-.623 1.318-.495 2.692a5.4 5.4 0 0 0 .893 2.492 5.2 5.2 0 0 0 2.085 1.741m19.158 7.114 2.843-6.022-6.022-2.844 1.291-2.734 6.022 2.843 2.828-5.989 2.735 1.291-2.828 5.99 6.006 2.835-1.291 2.735-6.006-2.836-2.844 6.023zm17.429 13.545 11.067-23.439 9.473 4.473q.342.16.831.432a7.4 7.4 0 0 1 .914.551q1.808 1.231 2.625 2.872a6.94 6.94 0 0 1 .748 3.518q-.087 1.87-.978 3.758-.9 1.904-2.288 3.159a6.94 6.94 0 0 1-3.192 1.658q-1.786.411-3.885-.202-.487-.15-1.023-.363a14 14 0 0 1-.845-.36l-6.072-2.866-3.973 8.415zm8.897-10.032 5.941 2.805q.325.153.732.306.422.159.818.247 1.157.247 2.1-.104a4.36 4.36 0 0 0 1.633-1.099q.684-.732 1.092-1.595a6 6 0 0 0 .53-1.84 4.2 4.2 0 0 0-.197-1.944q-.32-.967-1.246-1.703a4.6 4.6 0 0 0-.703-.492 10 10 0 0 0-.701-.37l-5.941-2.805zm11.513 19.668 8.3-17.579 3.027 1.43-2.013 4.264-.162-.753a7.2 7.2 0 0 1 1.576-1.147 5.3 5.3 0 0 1 1.758-.603 5.7 5.7 0 0 1 1.835-.049 7.1 7.1 0 0 1 1.846.473 7 7 0 0 1 1.622.866l-1.506 3.19q-.755-.635-1.859-1.037a4.65 4.65 0 0 0-2.236-.24 4.8 4.8 0 0 0-1.933.68 6.1 6.1 0 0 0-1.491 1.386 9.8 9.8 0 0 0-1.141 1.87l-4.189 8.871zm19.674 9.887q-2.637-1.245-4.012-3.348-1.377-2.103-1.451-4.686-.05-2.591 1.241-5.326 1.299-2.75 3.357-4.327 2.065-1.592 4.548-1.833 2.49-.258 5.079.964 2.636 1.245 4.012 3.348t1.451 4.686q.074 2.583-1.21 5.301-1.299 2.751-3.364 4.343-2.041 1.584-4.54 1.858-2.49.257-5.111-.98m1.514-3.207q2.523 1.191 4.56.083 2.06-1.118 3.328-3.803 1.299-2.751.805-4.994-.47-2.253-2.959-3.428-1.71-.807-3.185-.549-1.469.243-2.651 1.357-1.175 1.097-2.02 2.887-1.307 2.768-.821 5.027t2.943 3.42m4.627 15.064 1.522-3.223.895.423q1.352.638 2.277.278.942-.35 1.58-1.702l9.215-19.516 3.418 1.614-9.868 20.9q-1.014 2.148-2.756 2.759-1.725.619-3.923-.419zm16.849-26.621 1.56-3.304 3.418 1.614-1.56 3.304zm5.976 28.44q-2.621-1.238-4.069-3.314-1.424-2.087-1.562-4.659-.115-2.583 1.169-5.301 1.36-2.88 3.433-4.49 2.09-1.6 4.573-1.842 2.482-.24 5.054.973 2.686 1.269 3.982 3.413 1.304 2.129 1.148 4.862-.139 2.741-1.826 5.806l-3.401-1.606.584-1.237q1.412-3.075.964-5.078-.431-1.996-2.743-3.087-2.554-1.207-4.602-.202-2.046 1.004-3.484 4.048-1.368 2.897-.835 5.099.54 2.187 2.966 3.332 1.595.753 3.089.582 1.518-.179 2.806-1.223l2.838 2.634q-2.14 1.876-4.838 2.194-2.691.303-5.246-.904m-2.34-11.276 1.253-2.654 12.549 5.926-1.252 2.653zm21.487 20.317q-2.702-1.277-4.021-3.372-1.32-2.097-1.338-4.672-.001-2.569 1.243-5.246 1.3-2.71 3.309-4.31 2.018-1.616 4.482-1.904 2.466-.29 5.135.971 2.882 1.36 4.239 3.753 1.375 2.401.85 5.199l-3.847-.622q.195-1.72-.576-3.079-.747-1.368-2.229-2.068-1.676-.79-3.127-.501-1.443.274-2.61 1.396-1.166 1.12-2.012 2.871-1.268 2.726-.838 4.979.445 2.26 2.854 3.398 1.644.775 3.007.504 1.386-.28 2.592-1.443l3.067 2.443q-2.077 2.164-4.716 2.61-2.632.43-5.464-.907m21.272 9.446a16.2 16.2 0 0 1-3.386-1.26q-1.572-.802-2.556-1.964a4.3 4.3 0 0 1-1.043-2.682q-.055-1.359.427-2.505.504-1.155 1.181-2.587l7.34-15.545 3.418 1.614-7.263 15.382a98 98 0 0 0-.852 1.847q-.336.797-.281 1.479.11 1.287 1.31 2.032 1.225.738 3.065 1.308zm-5.003-20.516 1.291-2.735 12.012 5.672-1.291 2.735zm15.209 25.912q-3.207-1.514-4.556-3.883t-.592-5.156l3.737 1.107a3.9 3.9 0 0 0 .476 2.872q.819 1.342 2.577 2.173 1.595.753 2.798.524 1.219-.22 1.756-1.36.316-.667.182-1.228-.11-.568-.942-1.42-.832-.85-2.638-2.38-1.986-1.654-3.005-2.952-.996-1.306-1.143-2.47-.123-1.173.484-2.459.753-1.595 2.161-2.383 1.407-.789 3.244-.718 1.854.08 3.921 1.055 2.019.953 3.298 2.334 1.28 1.38 1.702 3.013.431 1.617-.111 3.271l-3.783-1.009q.42-1.355-.243-2.563-.663-1.21-2.244-2.035-1.516-.795-2.753-.663-1.229.116-1.706 1.125-.276.586-.11 1.162.182.584 1.063 1.458.882.874 2.703 2.371 1.944 1.615 2.916 2.929.98 1.299 1.079 2.52.125 1.214-.514 2.564-1.229 2.605-3.833 3.187-2.588.59-5.924-.986"/></g><defs><filter id="a" width="996.833" height="505.641" x=".364" y="93.947" color-interpolation-filters="sRGB" filterUnits="userSpaceOnUse"><feFlood flood-opacity="0" result="BackgroundImageFix"/><feColorMatrix in="SourceAlpha" result="hardAlpha" values="0 0 0 0 0 0 0 0 0 0 0 0 0 0 0 0 0 0 127 0"/><feOffset/><feGaussianBlur stdDeviation="25"/><feComposite in2="hardAlpha" operator="out"/><feColorMatrix values="0 0 0 0 0.713726 0 0 0 0 1 0 0 0 0 0.964706 0 0 0 0.5 0"/><feBlend in2="BackgroundImageFix" result="effect1_dropShadow_877_701"/><feBlend in="SourceGraphic" in2="effect1_dropShadow_877_701" result="shape"/></filter><filter id="b" width="996.833" height="505.641" x=".364" y="97.947" color-interpolation-filters="sRGB" filterUnits="userSpaceOnUse"><feFlood flood-opacity="0" result="BackgroundImageFix"/><feColorMatrix in="SourceAlpha" result="hardAlpha" values="0 0 0 0 0 0 0 0 0 0 0 0 0 0 0 0 0 0 127 0"/><feOffset dy="4"/><feGaussianBlur stdDeviation="25"/><feComposite in2="hardAlpha" operator="out"/><feColorMatrix values="0 0 0 0 0.713726 0 0 0 0 1 0 0 0 0 0.964706 0 0 0 0.5 0"/><feBlend in2="BackgroundImageFix" result="effect1_dropShadow_877_701"/><feBlend in="SourceGraphic" in2="effect1_dropShadow_877_701" result="shape"/></filter><linearGradient id="c" x1="1056.82" x2="85.315" y1="586.856" y2="206.356" gradientUnits="userSpaceOnUse"><stop stop-color="#B6FFF6"/><stop offset="1" stop-color="#0DAEF1"/></linearGradient></defs></svg>

<svg width="1007" height="655" viewBox="0 0 1007 655" fill="none" xmlns="http://www.w3.org/2000/svg">
    <g filter="url(#filter0_d_877_701)">
    <g filter="url(#filter1_d_877_701)">
    <path d="M919.314 522.74L663.367 545.056L666.769 488.123L702.314 429.354L942.314 414.24C914.435 462.316 909.912 486.274 919.314 522.74Z" fill="#F3F4F5"/>
    <path d="M378.314 143.947L107.228 143.948L713.814 430.854L940.315 402.356L378.314 143.947Z" fill="#B6FFF6"/>
    <path d="M926.242 524.971L669.707 549.564C667.233 549.801 664.929 548.282 664.173 545.915C663.144 542.696 665.363 539.351 668.729 539.048L925.402 515.937C926.004 515.883 926.61 515.949 927.185 516.132C931.889 517.629 931.156 524.499 926.242 524.971Z" fill="#B6FFF6"/>
    <path d="M940.427 416.333L715.698 430.436C714.152 430.533 712.638 429.961 711.543 428.866C708.285 425.608 710.342 420.029 714.935 419.666L939.406 401.928C940.009 401.88 940.616 401.909 941.212 402.012C949.644 403.479 948.968 415.797 940.427 416.333Z" fill="#B6FFF6"/>
    <path d="M104.153 145.885C106.131 144.588 108.592 144.593 110.731 145.604L714.314 430.854C666.934 474.088 662.273 501.778 665.814 549.354L55.265 261.847C53.4033 260.97 51.9567 259.417 51.5161 257.407C49.8244 249.69 47.5389 227.751 64.6192 195.049C81.1477 163.404 97.4397 150.287 104.153 145.885Z" fill="url(#paint0_linear_877_701)"/>
    </g>
    <path d="M258.558 303.282L267.858 283.587L262.178 284.19L263.969 280.397L269.625 279.843L273.092 281.48L262.025 304.919L258.558 303.282ZM272.292 309.766L281.591 290.071L275.912 290.674L277.703 286.882L283.359 286.328L286.826 287.965L275.759 311.403L272.292 309.766ZM289.881 318.668C288.286 317.915 287.039 316.902 286.141 315.628C285.247 314.344 284.738 312.922 284.611 311.363C284.496 309.809 284.814 308.234 285.568 306.639L289.38 298.566C290.133 296.971 291.146 295.724 292.419 294.826C293.704 293.932 295.123 293.428 296.677 293.313C298.236 293.186 299.813 293.5 301.409 294.253C303.004 295.006 304.248 296.025 305.141 297.309C306.039 298.582 306.546 299.996 306.662 301.55C306.788 303.109 306.475 304.687 305.722 306.282L301.91 314.355C301.156 315.95 300.138 317.194 298.853 318.088C297.58 318.986 296.164 319.498 294.605 319.625C293.05 319.74 291.476 319.421 289.881 318.668ZM291.418 315.413C292.286 315.823 293.17 315.988 294.07 315.909C294.986 315.824 295.822 315.528 296.578 315.023C297.34 314.506 297.928 313.809 298.343 312.93L302.37 304.401C302.78 303.533 302.94 302.646 302.849 301.741C302.764 300.825 302.461 299.992 301.94 299.241C301.434 298.485 300.747 297.902 299.879 297.492C299.011 297.082 298.119 296.92 297.203 297.005C296.303 297.084 295.472 297.382 294.711 297.898C293.955 298.404 293.372 299.09 292.962 299.959L288.935 308.488C288.52 309.367 288.355 310.264 288.44 311.18C288.53 312.085 288.828 312.916 289.333 313.672C289.855 314.423 290.55 315.003 291.418 315.413ZM310.576 322.527L313.419 316.505L307.397 313.661L308.688 310.927L314.71 313.77L317.538 307.781L320.273 309.072L317.445 315.062L323.451 317.897L322.16 320.632L316.154 317.796L313.31 323.819L310.576 322.527ZM328.005 336.072L339.072 312.633L348.545 317.106C348.773 317.213 349.05 317.357 349.376 317.538C349.707 317.708 350.012 317.891 350.29 318.089C351.495 318.91 352.37 319.867 352.915 320.961C353.472 322.059 353.721 323.232 353.663 324.479C353.605 325.725 353.279 326.978 352.685 328.237C352.085 329.506 351.323 330.56 350.397 331.396C349.471 332.233 348.407 332.786 347.205 333.054C346.014 333.328 344.719 333.261 343.32 332.852C342.995 332.752 342.654 332.631 342.297 332.489C341.95 332.352 341.669 332.232 341.452 332.129L335.38 329.263L331.407 337.678L328.005 336.072ZM336.902 326.04L342.843 328.845C343.06 328.947 343.304 329.049 343.575 329.151C343.856 329.257 344.129 329.339 344.393 329.398C345.165 329.563 345.864 329.528 346.493 329.294C347.126 329.049 347.67 328.683 348.126 328.195C348.582 327.707 348.946 327.175 349.218 326.6C349.489 326.025 349.666 325.411 349.748 324.76C349.835 324.098 349.77 323.45 349.551 322.816C349.338 322.171 348.923 321.604 348.305 321.113C348.097 320.935 347.863 320.771 347.602 320.621C347.351 320.477 347.118 320.353 346.901 320.251L340.96 317.446L336.902 326.04ZM348.415 345.708L356.715 328.129L359.742 329.559L357.729 333.823L357.567 333.07C358.05 332.608 358.576 332.226 359.143 331.923C359.716 331.61 360.302 331.409 360.901 331.32C361.5 331.205 362.111 331.188 362.736 331.271C363.376 331.347 363.992 331.505 364.582 331.744C365.178 331.972 365.719 332.261 366.204 332.61L364.698 335.8C364.195 335.376 363.575 335.031 362.839 334.763C362.114 334.5 361.368 334.42 360.603 334.523C359.881 334.62 359.236 334.847 358.67 335.203C358.114 335.564 357.617 336.026 357.179 336.589C356.746 337.141 356.366 337.764 356.038 338.459L351.849 347.33L348.415 345.708ZM368.089 355.595C366.331 354.765 364.994 353.649 364.077 352.247C363.159 350.845 362.676 349.283 362.626 347.561C362.593 345.834 363.006 344.058 363.867 342.235C364.733 340.401 365.852 338.959 367.224 337.908C368.601 336.847 370.117 336.235 371.772 336.075C373.432 335.903 375.125 336.225 376.851 337.039C378.608 337.869 379.946 338.985 380.863 340.387C381.781 341.789 382.264 343.351 382.314 345.073C382.363 346.795 381.96 348.562 381.104 350.374C380.238 352.208 379.117 353.656 377.74 354.717C376.379 355.773 374.866 356.392 373.2 356.575C371.54 356.746 369.836 356.42 368.089 355.595ZM369.603 352.388C371.285 353.182 372.805 353.21 374.163 352.471C375.536 351.726 376.646 350.458 377.491 348.668C378.357 346.834 378.625 345.169 378.296 343.674C377.983 342.172 376.997 341.03 375.337 340.246C374.197 339.708 373.136 339.525 372.152 339.697C371.173 339.859 370.289 340.311 369.501 341.054C368.718 341.785 368.044 342.748 367.481 343.941C366.61 345.786 366.336 347.462 366.66 348.968C366.984 350.475 367.965 351.615 369.603 352.388ZM374.23 367.452L375.752 364.229L376.647 364.652C377.548 365.077 378.307 365.17 378.924 364.93C379.552 364.696 380.079 364.129 380.504 363.228L389.719 343.712L393.137 345.326L383.269 366.226C382.593 367.658 381.674 368.578 380.513 368.985C379.363 369.397 378.055 369.258 376.59 368.566L374.23 367.452ZM391.079 340.831L392.639 337.527L396.057 339.141L394.497 342.445L391.079 340.831ZM397.055 369.271C395.308 368.446 393.951 367.341 392.986 365.957C392.037 364.566 391.516 363.013 391.424 361.298C391.347 359.576 391.737 357.809 392.593 355.997C393.5 354.077 394.644 352.58 396.026 351.507C397.419 350.44 398.944 349.826 400.599 349.665C402.254 349.505 403.938 349.829 405.653 350.638C407.443 351.484 408.771 352.621 409.635 354.051C410.504 355.47 410.887 357.091 410.783 358.913C410.69 360.74 410.082 362.676 408.957 364.719L405.556 363.113L406.14 361.876C407.081 359.826 407.403 358.133 407.104 356.798C406.817 355.467 405.902 354.439 404.361 353.711C402.658 352.907 401.124 352.839 399.759 353.509C398.395 354.178 397.233 355.528 396.275 357.557C395.363 359.488 395.085 361.188 395.44 362.656C395.8 364.114 396.789 365.224 398.406 365.988C399.469 366.49 400.499 366.684 401.495 366.57C402.507 366.451 403.442 366.043 404.301 365.347L407.139 367.981C405.712 369.232 404.099 369.963 402.301 370.175C400.507 370.377 398.758 370.075 397.055 369.271ZM394.715 357.995L395.968 355.341L408.517 361.267L407.265 363.92L394.715 357.995ZM416.202 378.312C414.401 377.461 413.06 376.337 412.181 374.94C411.301 373.542 410.855 371.985 410.843 370.268C410.842 368.555 411.257 366.807 412.086 365.022C412.953 363.215 414.056 361.778 415.395 360.712C416.74 359.635 418.234 359 419.877 358.808C421.521 358.615 423.232 358.939 425.012 359.779C426.933 360.686 428.346 361.937 429.251 363.532C430.168 365.133 430.451 366.866 430.101 368.731L426.254 368.109C426.384 366.962 426.192 365.936 425.678 365.03C425.18 364.118 424.437 363.429 423.449 362.962C422.332 362.435 421.289 362.268 420.322 362.461C419.36 362.644 418.49 363.109 417.712 363.857C416.935 364.604 416.264 365.561 415.7 366.728C414.855 368.545 414.575 370.205 414.862 371.707C415.159 373.214 416.11 374.347 417.716 375.105C418.812 375.622 419.814 375.79 420.723 375.609C421.647 375.422 422.511 374.941 423.315 374.166L426.382 376.609C424.997 378.052 423.425 378.922 421.666 379.219C419.911 379.506 418.09 379.203 416.202 378.312ZM437.474 387.758C436.265 387.452 435.136 387.032 434.088 386.498C433.04 385.963 432.188 385.309 431.532 384.534C430.875 383.76 430.528 382.866 430.489 381.852C430.452 380.946 430.595 380.111 430.916 379.347C431.252 378.577 431.646 377.714 432.097 376.76L439.437 361.215L442.855 362.829L435.592 378.211C435.259 378.916 434.975 379.532 434.74 380.058C434.516 380.589 434.422 381.082 434.459 381.537C434.532 382.395 434.969 383.072 435.769 383.569C436.586 384.061 437.607 384.497 438.834 384.877L437.474 387.758ZM432.471 367.242L433.762 364.507L445.774 370.179L444.483 372.914L432.471 367.242ZM447.68 393.154C445.542 392.145 444.023 390.85 443.124 389.271C442.224 387.692 442.027 385.973 442.532 384.115L446.269 385.222C446.056 386.236 446.214 387.194 446.745 388.094C447.291 388.989 448.15 389.713 449.322 390.267C450.385 390.769 451.318 390.944 452.12 390.791C452.932 390.644 453.518 390.191 453.876 389.431C454.087 388.986 454.147 388.577 454.058 388.203C453.985 387.824 453.671 387.351 453.116 386.783C452.561 386.216 451.682 385.423 450.478 384.403C449.154 383.3 448.152 382.316 447.473 381.451C446.809 380.581 446.428 379.757 446.33 378.981C446.248 378.199 446.409 377.379 446.814 376.522C447.316 375.459 448.036 374.664 448.975 374.139C449.913 373.613 450.994 373.374 452.219 373.421C453.455 373.474 454.762 373.826 456.14 374.476C457.486 375.112 458.585 375.889 459.438 376.81C460.291 377.73 460.858 378.734 461.14 379.823C461.428 380.901 461.39 381.991 461.029 383.094L457.246 382.085C457.526 381.182 457.445 380.327 457.003 379.522C456.561 378.716 455.813 378.037 454.759 377.487C453.748 376.957 452.831 376.736 452.006 376.824C451.187 376.901 450.618 377.277 450.3 377.949C450.116 378.34 450.079 378.727 450.19 379.111C450.311 379.5 450.666 379.986 451.253 380.569C451.841 381.152 452.742 381.942 453.956 382.94C455.252 384.016 456.224 384.993 456.872 385.869C457.525 386.735 457.885 387.575 457.951 388.389C458.034 389.198 457.863 390.053 457.437 390.953C456.618 392.69 455.34 393.752 453.604 394.14C451.879 394.533 449.904 394.204 447.68 393.154Z" fill="#225C90"/>
    </g>
    <defs>
    <filter id="filter0_d_877_701" x="0.36377" y="93.9473" width="996.833" height="505.641" filterUnits="userSpaceOnUse" color-interpolation-filters="sRGB">
    <feFlood flood-opacity="0" result="BackgroundImageFix"/>
    <feColorMatrix in="SourceAlpha" type="matrix" values="0 0 0 0 0 0 0 0 0 0 0 0 0 0 0 0 0 0 127 0" result="hardAlpha"/>
    <feOffset/>
    <feGaussianBlur stdDeviation="25"/>
    <feComposite in2="hardAlpha" operator="out"/>
    <feColorMatrix type="matrix" values="0 0 0 0 0.713726 0 0 0 0 1 0 0 0 0 0.964706 0 0 0 0.5 0"/>
    <feBlend mode="normal" in2="BackgroundImageFix" result="effect1_dropShadow_877_701"/>
    <feBlend mode="normal" in="SourceGraphic" in2="effect1_dropShadow_877_701" result="shape"/>
    </filter>
    <filter id="filter1_d_877_701" x="0.36377" y="97.9473" width="996.833" height="505.641" filterUnits="userSpaceOnUse" color-interpolation-filters="sRGB">
    <feFlood flood-opacity="0" result="BackgroundImageFix"/>
    <feColorMatrix in="SourceAlpha" type="matrix" values="0 0 0 0 0 0 0 0 0 0 0 0 0 0 0 0 0 0 127 0" result="hardAlpha"/>
    <feOffset dy="4"/>
    <feGaussianBlur stdDeviation="25"/>
    <feComposite in2="hardAlpha" operator="out"/>
    <feColorMatrix type="matrix" values="0 0 0 0 0.713726 0 0 0 0 1 0 0 0 0 0.964706 0 0 0 0.5 0"/>
    <feBlend mode="normal" in2="BackgroundImageFix" result="effect1_dropShadow_877_701"/>
    <feBlend mode="normal" in="SourceGraphic" in2="effect1_dropShadow_877_701" result="shape"/>
    </filter>
    <linearGradient id="paint0_linear_877_701" x1="1056.82" y1="586.856" x2="85.3149" y2="206.356" gradientUnits="userSpaceOnUse">
    <stop stop-color="#B6FFF6"/>
    <stop offset="1" stop-color="#0DAEF1"/>
    </linearGradient>
    </defs>
    </svg>
